X:4
%%MIDI gchordoff
T:Le Pistolet
T:Smith's Rant
T:or  May day
M:C|
L:1/4
K:F
P:A
"F"F2 A > B | "F"c2 A2 | "Bb"B > c A > B | "C7"G2 "F"F2  |"C"g2 e > f | "C"g2 e2 | "Dm"f > g e > f | "G7"d2 "C"c2 ||
P:B
"C7"g2 a > b | "F"a3 g/f/ | "Gm"e > f d > e | "A7"^c2 "Dm"d2 | "C7"e2 d > e | "Dm"f > g a > f | "Gm"b > a g > f | "C7"e2 "F"f2 |]
